static/d100.svg

<?xml version="1.0" encoding="UTF-8" standalone="no"?>
<svg
   style="height: 512px; width: 512px;"
   viewBox="0 0 512 512"
   version="1.1"
   id="svg129"
   sodipodi:docname="d100.svg"
   inkscape:export-filename="d100.png"
   inkscape:export-xdpi="66.63"
   inkscape:export-ydpi="66.63"
   inkscape:version="1.2 (dc2aedaf03, 2022-05-15)"
   xmlns:inkscape="http://www.inkscape.org/namespaces/inkscape"
   xmlns:sodipodi="http://sodipodi.sourceforge.net/DTD/sodipodi-0.dtd"
   xmlns="http://www.w3.org/2000/svg"
   xmlns:svg="http://www.w3.org/2000/svg">
  <defs
     id="defs133" />
  <sodipodi:namedview
     id="namedview131"
     pagecolor="#ffffff"
     bordercolor="#666666"
     borderopacity="1.0"
     inkscape:showpageshadow="2"
     inkscape:pageopacity="0.0"
     inkscape:pagecheckerboard="0"
     inkscape:deskcolor="#d1d1d1"
     showgrid="false"
     inkscape:zoom="0.9858681"
     inkscape:cx="328.64437"
     inkscape:cy="157.22184"
     inkscape:window-width="1920"
     inkscape:window-height="1053"
     inkscape:window-x="0"
     inkscape:window-y="0"
     inkscape:window-maximized="1"
     inkscape:current-layer="svg129" />
  <path
     id="path125-7"
     style="fill:#ffffff;stroke-width:0.68752"
     d="M 82.699219 35 L 103.44922 91.4375 L 113.18555 97.1875 L 185.04492 139.45117 L 288.96484 67.775391 L 82.699219 35 z M 69.158203 36.236328 L 45.794922 143.20312 A 4.9054566 4.9054566 0 0 0 46.351562 144.00977 L 46.412109 144.09766 C 47.359418 145.19262 48.429016 145.24594 49.621094 144.25781 A 13.310391 13.310391 0 0 0 52.919922 139.23047 A 27.071796 27.071796 0 0 0 55.011719 129.66406 C 55.102201 127.42347 54.939218 123.34701 54.523438 117.43555 C 54.025143 110.65449 54.268457 105.0444 55.251953 100.60547 A 63.619681 63.619681 0 0 1 58.955078 88.435547 L 73.927734 105.5918 L 69.785156 115.2832 L 60.253906 104.3457 A 25.036048 25.036048 0 0 0 59.943359 108.5332 C 59.956886 109.8485 60.089632 112.10812 60.339844 115.3125 L 60.726562 120.41016 A 63.922191 63.922191 0 0 1 60.794922 131.13672 A 42.263242 42.263242 0 0 1 57.521484 143.84375 C 55.20924 149.24703 52.665633 152.80932 49.892578 154.5293 C 47.583438 155.96327 45.430951 155.8497 43.427734 154.24219 L 26.378906 232.64648 L 88.158203 104.76562 L 91.623047 97.609375 L 69.158203 36.236328 z M 178.57031 62.640625 A 22.133338 22.133338 0 0 1 192.06055 65.134766 A 19.230628 19.230628 0 0 1 200.41602 73.982422 L 200.75977 74.738281 A 13.458208 13.458208 0 0 1 202.0625 80.544922 A 8.0453614 8.0453614 0 0 1 200.54688 84.898438 A 13.720153 13.720153 0 0 1 195.48633 88.923828 A 33.858307 33.858307 0 0 1 187.53125 90.984375 L 184.13867 82.984375 C 187.08933 82.697301 189.24306 81.977102 190.5957 80.826172 C 191.94302 79.717611 192.18086 78.139456 191.30664 76.09375 L 191.19141 75.826172 A 7.1543351 7.1543351 0 0 0 187.43945 72.246094 A 11.716719 11.716719 0 0 0 181.27344 71.412109 C 177.76455 71.806092 175.83571 73.018589 175.48633 75.046875 C 175.26318 76.220837 175.71523 78.199023 176.8418 80.984375 L 168.45508 81.931641 L 167.92188 80.742188 A 16.352667 16.352667 0 0 0 164.69336 75.816406 C 162.40356 73.648498 159.29451 72.782318 155.36523 73.220703 C 152.411 73.559521 150.37304 74.450559 149.36133 75.863281 A 4.4400054 4.4400054 0 0 0 148.85742 80.521484 L 148.99414 80.833984 C 150.18961 83.393082 152.38126 85.015708 155.57031 85.703125 A 19.623202 19.623202 0 0 0 161.84766 85.875 L 165.43945 94.322266 A 36.474321 36.474321 0 0 1 153.02734 93.507812 A 19.74558 19.74558 0 0 1 139.70312 82.423828 L 139.33398 81.585938 C 137.17829 76.550467 137.47363 72.539881 140.2207 69.552734 C 142.96751 66.565217 146.86513 64.79049 151.91406 64.228516 A 22.076273 22.076273 0 0 1 164.65039 66.232422 C 167.06167 67.462417 168.44764 68.465766 168.81055 69.242188 L 168.83789 69.28125 A 5.7724195 5.7724195 0 0 1 170.6543 65.923828 C 172.42552 64.132575 175.06454 63.039137 178.57031 62.640625 z M 296.3418 78.757812 L 192.47266 150.2207 L 206.46094 232.42773 L 208.33984 243.27148 L 237.38281 268.81445 L 263.02344 242.73438 L 296.3418 78.757812 z M 102.10547 105.60547 L 32.337891 252.7207 L 194.67188 239.81445 L 179.53125 151.20117 L 102.10547 105.60547 z M 244.92383 149.70117 L 268.96484 173.71289 L 262.96875 182.81641 L 246.00977 165.87695 C 246.03722 169.9499 245.20784 176.26969 243.52148 184.83594 C 240.64715 198.5061 236.21683 210.01388 230.22852 219.36133 L 223.31641 212.38086 A 79.482147 79.482147 0 0 0 229.77148 199.98047 A 117.20706 117.20706 0 0 0 235.01562 185.83594 A 114.94238 114.94238 0 0 0 238.46289 169.62305 A 97.150729 97.150729 0 0 0 239.61719 157.54297 L 244.92383 149.70117 z M 135.69336 161.52148 C 141.1425 161.83642 145.86401 164.88677 149.85547 170.67383 C 154.4126 177.29073 155.29327 183.52781 152.49805 189.38281 C 149.70256 195.23743 144.0197 201.12001 135.44922 207.03125 C 126.87911 212.94224 119.34981 216.17198 112.86133 216.7207 C 106.37322 217.26917 100.84903 214.23721 96.287109 207.62305 C 91.729713 201.00577 90.858029 194.76061 93.675781 188.89062 C 96.493898 183.0204 102.18966 177.12973 110.75977 171.21875 C 119.33025 165.30751 126.84836 162.08547 133.31445 161.55273 C 134.12265 161.48605 134.91491 161.47649 135.69336 161.52148 z M 135.35352 173.16406 C 134.50732 173.19731 133.6082 173.36108 132.6543 173.6582 C 128.83882 174.84605 123.93539 177.50718 117.94531 181.63867 C 111.68997 185.95311 107.39602 189.6356 105.06445 192.6875 C 102.73287 195.73941 102.61305 198.7813 104.70508 201.81445 C 106.78626 204.84173 109.65599 205.7893 113.3125 204.6582 L 113.32812 204.66797 C 116.98429 203.53654 121.94035 200.81418 128.19531 196.5 C 134.16315 192.38386 138.40445 188.76261 140.91797 185.63867 C 143.43123 182.51435 143.62992 179.44358 141.51562 176.42578 C 139.94641 174.15063 137.89209 173.06433 135.35352 173.16406 z M 198.93555 252.44727 L 190.49609 253.17383 L 48.974609 265.49414 L 132.47266 278.01562 L 132.00781 277.34375 C 131.85947 277.12868 131.62802 276.79059 131.49805 276.47266 C 129.79826 273.28811 130.01015 270.82586 132.13281 269.08398 C 134.2552 267.34173 137.5016 266.5018 141.875 266.56445 A 36.973461 36.973461 0 0 1 148.53711 267.29297 A 26.057703 26.057703 0 0 1 156.40039 270.3418 C 156.93988 268.79097 158.35386 267.62078 160.64258 266.83008 A 25.632816 25.632816 0 0 1 169.11328 265.67578 A 37.897488 37.897488 0 0 1 183.43555 268.51172 C 187.53058 270.19622 190.55209 272.58471 192.5 275.67773 C 192.71079 275.98335 192.89736 276.30585 193.05859 276.64453 C 194.96964 280.21288 194.6852 282.9772 192.20508 284.93945 A 11.0787 11.0787 0 0 1 189.27734 286.57227 L 224.44922 291.8418 C 224.45186 287.17715 225.80772 282.51651 228.51172 278.46875 L 198.93555 252.44727 z M 171.79688 272.1582 L 171.77734 272.17188 C 168.72469 272.15208 166.6283 272.55135 165.49023 273.36914 C 164.33964 274.16272 164.14431 275.29134 164.93164 276.73438 L 165.1543 277.05664 A 8.1759902 8.1759902 0 0 0 169.12305 280.0918 A 20.522478 20.522478 0 0 0 176.74023 281.38281 C 179.69189 281.39988 181.75741 281.00754 182.93945 280.20508 C 184.124 279.38806 184.3198 278.26083 183.59375 276.83398 L 183.36133 276.49805 A 8.0783623 8.0783623 0 0 0 179.30078 273.49023 A 20.481227 20.481227 0 0 0 171.79688 272.1582 z M 146.35938 272.53125 C 143.98716 272.51875 142.3248 272.86081 141.37891 273.5625 C 140.43283 274.26509 140.28741 275.24824 140.96094 276.51172 L 141.16602 276.80859 A 7.0560198 7.0560198 0 0 0 144.57227 279.47461 A 13.163949 13.163949 0 0 0 146.69922 280.12305 L 149.13672 280.48828 C 149.63536 280.52098 150.16259 280.53499 150.67578 280.55859 C 152.8485 280.56999 154.43072 280.24249 155.43359 279.55078 C 156.4359 278.85947 156.60418 277.88097 155.92188 276.60352 L 155.7207 276.3125 A 7.113084 7.113084 0 0 0 152.24609 273.63477 A 15.535206 15.535206 0 0 0 146.35938 272.53125 z " />
  <path
     d="m 410.83528,331.14088 -75.61347,-35.15841 0.14645,-126.07814 145.26888,150.85293 -59.80943,14.99482 z m -8.75625,-74.68256 -4.08868,-10.10586 -33.41623,6.15673 3.44241,8.82227 a 97.150729,97.150729 0 0 1 9.28839,7.80885 114.94238,114.94238 0 0 1 11.38946,12.04329 117.20706,117.20706 0 0 1 8.66688,12.34649 79.482147,79.482147 0 0 1 6.54107,12.35474 l 9.67203,-1.72568 Q 407.1323,288.80407 392.70056,273.61263 383.55929,264.23485 378.50671,260.8 Z M 236.28766,335.89096 178.04782,320.92845 322.13899,169.7407 v 126.24246 l -75.5901,35.15772 z m 13.16394,-34.96178 a 19.74558,19.74558 0 0 0 16.68819,-4.67652 36.474321,36.474321 0 0 0 7.71809,-9.75453 l -8.99344,-1.8398 a 19.623202,19.623202 0 0 1 -3.70437,5.06977 q -3.56479,3.35235 -7.74285,2.64902 l -0.33482,-0.0653 a 4.4400054,4.4400054 0 0 1 -3.54898,-3.05809 c -0.58852,-1.63492 -0.16363,-3.81848 1.23479,-6.44275 q 2.80508,-5.22515 7.43209,-6.20624 a 16.352667,16.352667 0 0 1 5.88724,0.13956 l 1.2836,0.23651 3.98143,-7.44035 q -4.39876,-0.98109 -5.6583,-2.25644 -2.20694,-2.15881 0.29495,-6.82707 a 11.716719,11.716719 0 0 1 4.18631,-4.60364 7.1543351,7.1543351 0 0 1 5.07734,-1.05466 l 0.28601,0.0571 q 3.27053,0.66277 3.49191,3.27053 c 0.17944,1.76694 -0.45032,3.94912 -1.88931,6.54107 l 8.51151,1.74973 a 33.858307,33.858307 0 0 0 2.82089,-7.71809 13.720153,13.720153 0 0 0 -0.44138,-6.451 8.0453614,8.0453614 0 0 0 -2.72259,-3.72018 13.458208,13.458208 0 0 0 -5.51872,-2.22413 l -0.81816,-0.14712 a 19.230628,19.230628 0 0 0 -12.02747,1.8563 22.133338,22.133338 0 0 0 -9.71328,9.68854 q -2.49364,4.66826 -1.79031,8.38087 a 5.7724195,5.7724195 0 0 0 1.73324,3.40116 h -0.0488 q -1.26779,-0.21313 -4.84014,1.71674 a 22.076273,22.076273 0 0 0 -8.88001,9.34546 q -3.60604,6.71294 -2.25644,12.64899 1.34891,5.93606 9.40253,7.56273 z m -78.07479,31.84663 74.78845,79.96478 a 4.9054566,4.9054566 0 0 0 0.98109,0 h 0.10588 q 2.15882,-0.23719 1.95393,-2.55069 a 13.310391,13.310391 0 0 0 -2.26469,-5.56893 27.071796,27.071796 0 0 0 -6.6882,-7.15364 q -2.68958,-2.01993 -10.34305,-6.54107 -8.79751,-5.15984 -13.44102,-10.15468 a 63.619681,63.619681 0 0 1 -7.91542,-9.95941 l 22.62423,-2.5837 5.62529,8.91233 -14.41524,1.63492 a 25.036048,25.036048 0 0 0 3.27053,2.6332 q 1.63562,1.10347 5.80543,3.52354 l 4.41525,2.57614 a 63.922191,63.922191 0 0 1 8.87108,6.03368 42.263242,42.263242 0 0 1 8.60088,9.90991 q 4.70263,7.45685 4.46475,12.3458 c -0.13064,2.71502 -1.44723,4.4235 -3.90787,5.15984 l 54.86273,58.54991 -70.19374,-123.46213 -3.92437,-6.91645 z m 252.48354,49.48357 q -2.62426,3.75248 -2.5837,5.85423 c 0,1.39774 0.81815,2.19938 2.45307,2.37058 h 0.39189 a 8.1759902,8.1759902 0 0 0 4.75076,-1.54486 20.522478,20.522478 0 0 0 5.3881,-5.53523 q 2.53489,-3.6301 2.55071,-5.7731 c 0,-1.43898 -0.81679,-2.23994 -2.40358,-2.45239 h -0.40838 a 8.0783623,8.0783623 0 0 0 -4.78308,1.63493 20.481227,20.481227 0 0 0 -5.35579,5.42109 z m -75.22158,97.29786 57.71594,-61.62519 h -0.81745 c -0.26127,0 -0.67034,0 -1.00585,-0.0735 q -5.37985,-0.61326 -5.72291,-4.71776 -0.34376,-4.10449 3.45822,-9.45134 a 36.973461,36.973461 0 0 1 4.38294,-5.06977 26.057703,26.057703 0 0 1 6.9742,-4.74182 q -1.45548,-1.98694 -0.48263,-5.48642 a 25.632816,25.632816 0 0 1 3.85905,-7.62872 37.897488,37.897488 0 0 1 10.46611,-10.17942 q 5.56754,-3.62186 11.04571,-3.39291 0.55689,0 1.1124,0.0894 6.03369,0.67928 6.34444,5.41285 a 11.0787,11.0787 0 0 1 -0.31832,3.33653 l 40.34987,-43.09788 -62.9576,15.7724 -4.19387,7.35852 z m 67.52824,-72.13943 1.68442,-1.79924 c 0.31007,-0.39188 0.62083,-0.81747 0.93159,-1.22654 1.24304,-1.78205 1.87212,-3.27053 1.87212,-4.48882 0,-1.21759 -0.7109,-1.91268 -2.14988,-2.07631 h -0.35201 a 7.113084,7.113084 0 0 0 -4.17806,1.34067 15.535206,15.535206 0 0 0 -4.25162,4.21931 c -1.35717,1.94568 -2.01926,3.50772 -1.97869,4.68476 0.0412,1.17772 0.76864,1.85631 2.19113,2.01924 h 0.36026 a 7.0560198,7.0560198 0 0 0 4.12856,-1.29184 13.163949,13.163949 0 0 0 1.74149,-1.38192 z m -87.48764,78.58218 -81.49245,-140.95951 81.49314,-37.848 81.54265,37.848 z m -0.81815,-143.32252 q -12.05154,0 -16.89924,8.43794 -4.84909,8.43793 -4.84909,24.05495 0,15.61634 4.8484,24.09552 4.84839,8.4785 16.90061,8.48675 12.05224,0 16.90063,-8.4785 4.8484,-8.47918 4.8484,-24.09552 0,-15.61702 -4.8484,-24.05496 -4.84908,-8.43793 -16.90063,-8.44618 z m 7.24509,49.36876 q 1.71674,-5.47815 1.71674,-16.87587 0,-10.87451 -1.71674,-16.63867 -1.71742,-5.76417 -7.24441,-5.72361 -5.52765,0 -7.30971,5.72361 -1.78273,5.72292 -1.78273,16.63798 0,11.39841 1.78273,16.87656 1.78274,5.47816 7.30971,5.47816 5.51048,0.008 7.22791,-5.46991 z"
     fill="#fff"
     fill-opacity="1"
     id="path125"
     style="fill:#ffffff;stroke-width:0.68752" />
</svg>

<svg style="height:512px;width:512px" viewBox="0 0 512 512" xmlns="http://www.w3.org/2000/svg"><path style="stroke-width:.68752" d="m82.7 35 20.75 56.438 9.736 5.75 71.859 42.263 103.92-71.676L82.699 35zm-13.542 1.236L45.795 143.203a4.905 4.905 0 0 0 .557.807l.06.088c.947 1.095 2.017 1.148 3.21.16a13.31 13.31 0 0 0 3.298-5.028 27.072 27.072 0 0 0 2.092-9.566c.09-2.24-.073-6.317-.489-12.228-.498-6.782-.255-12.392.729-16.83a63.62 63.62 0 0 1 3.703-12.17l14.973 17.156-4.143 9.691-9.531-10.937a25.036 25.036 0 0 0-.31 4.187c.013 1.316.146 3.575.396 6.78l.387 5.097a63.922 63.922 0 0 1 .068 10.727 42.263 42.263 0 0 1-3.274 12.707c-2.312 5.403-4.855 8.965-7.628 10.685-2.31 1.434-4.462 1.32-6.465-.287l-17.05 78.404 61.78-127.88 3.465-7.157-22.465-61.373zM178.57 62.641a22.133 22.133 0 0 1 13.49 2.494 19.23 19.23 0 0 1 8.356 8.847l.344.756a13.458 13.458 0 0 1 1.303 5.807 8.045 8.045 0 0 1-1.516 4.353 13.72 13.72 0 0 1-5.06 4.026 33.858 33.858 0 0 1-7.956 2.06l-3.392-8c2.95-.287 5.104-1.007 6.457-2.158 1.347-1.108 1.585-2.687.71-4.732l-.115-.268a7.154 7.154 0 0 0-3.752-3.58 11.717 11.717 0 0 0-6.166-.834c-3.508.394-5.437 1.607-5.787 3.635-.223 1.174.23 3.152 1.356 5.937l-8.387.948-.533-1.19a16.353 16.353 0 0 0-3.229-4.926c-2.29-2.168-5.398-3.034-9.328-2.595-2.954.339-4.992 1.23-6.004 2.642a4.44 4.44 0 0 0-.504 4.658l.137.313c1.196 2.56 3.387 4.182 6.576 4.87a19.623 19.623 0 0 0 6.278.171l3.591 8.447a36.474 36.474 0 0 1-12.412-.814 19.746 19.746 0 0 1-13.324-11.084l-.369-.838c-2.156-5.036-1.86-9.046.887-12.033 2.747-2.988 6.644-4.763 11.693-5.324a22.076 22.076 0 0 1 12.736 2.003c2.412 1.23 3.798 2.234 4.16 3.01l.028.04a5.772 5.772 0 0 1 1.816-3.358c1.772-1.791 4.41-2.885 7.916-3.283zm117.772 16.117-103.87 71.463 13.989 82.207 1.879 10.843 29.043 25.543 25.64-26.08 33.319-163.976zm-194.237 26.847L32.338 252.721l162.334-12.907-15.14-88.613-77.427-45.596zm142.819 44.096 24.04 24.012-5.995 9.103-16.96-16.94c.028 4.074-.801 10.394-2.488 18.96-2.874 13.67-7.304 25.178-13.292 34.525l-6.913-6.98a79.482 79.482 0 0 0 6.455-12.4 117.207 117.207 0 0 0 5.245-14.145 114.942 114.942 0 0 0 3.447-16.213 97.15 97.15 0 0 0 1.154-12.08l5.307-7.842zm-109.23 11.82c5.449.315 10.17 3.366 14.161 9.153 4.558 6.617 5.438 12.854 2.643 18.709-2.795 5.854-8.478 11.737-17.049 17.648-8.57 5.911-16.1 9.141-22.588 9.69-6.488.548-12.012-2.484-16.574-9.098-4.557-6.617-5.429-12.862-2.611-18.732 2.818-5.87 8.514-11.761 17.084-17.672 8.57-5.911 16.088-9.134 22.554-9.666.809-.067 1.6-.077 2.38-.032zm-.34 11.643c-.847.033-1.746.197-2.7.494-3.815 1.188-8.719 3.85-14.709 7.98-6.255 4.315-10.549 7.998-12.88 11.05-2.332 3.051-2.452 6.093-.36 9.126 2.081 3.028 4.951 3.975 8.608 2.844l.015.01c3.656-1.131 8.612-3.854 14.867-8.168 5.968-4.116 10.21-7.737 12.723-10.861 2.513-3.125 2.712-6.195.598-9.213-1.57-2.275-3.624-3.362-6.162-3.262zm63.582 79.283-8.44.727-141.521 12.32 83.498 12.522-.465-.672c-.149-.215-.38-.553-.51-.871-1.7-3.185-1.488-5.647.635-7.389 2.122-1.742 5.369-2.582 9.742-2.52a36.973 36.973 0 0 1 6.662.729 26.058 26.058 0 0 1 7.863 3.049c.54-1.551 1.954-2.721 4.243-3.512a25.633 25.633 0 0 1 8.47-1.154 37.897 37.897 0 0 1 14.323 2.836c4.095 1.684 7.116 4.073 9.064 7.166.21.305.397.628.559.967 1.91 3.568 1.626 6.332-.854 8.294a11.079 11.079 0 0 1-2.928 1.633l35.172 5.27a24.073 24.073 0 0 1 4.063-13.373l-29.576-26.022zm-27.14 19.711-.019.014c-3.052-.02-5.149.38-6.287 1.197-1.15.794-1.346 1.922-.558 3.365l.222.323a8.176 8.176 0 0 0 3.97 3.035 20.522 20.522 0 0 0 7.616 1.29c2.952.018 5.017-.374 6.2-1.177 1.184-.817 1.38-1.944.654-3.371l-.233-.336a8.078 8.078 0 0 0-4.06-3.008 20.481 20.481 0 0 0-7.504-1.332zm-25.437.373c-2.372-.012-4.034.33-4.98 1.031-.946.703-1.092 1.686-.418 2.95l.205.297a7.056 7.056 0 0 0 3.406 2.666 13.164 13.164 0 0 0 2.127.648l2.438.365c.498.033 1.026.047 1.539.07 2.173.012 3.755-.316 4.758-1.007 1.002-.692 1.17-1.67.488-2.947l-.201-.291a7.113 7.113 0 0 0-3.475-2.678 15.535 15.535 0 0 0-5.887-1.104z"/><path d="m410.835 331.14-75.613-35.158.146-126.078 145.27 150.853-59.81 14.995zm-8.756-74.682-4.089-10.106-33.416 6.157 3.443 8.822a97.15 97.15 0 0 1 9.288 7.81 114.942 114.942 0 0 1 11.39 12.043 117.207 117.207 0 0 1 8.666 12.346 79.482 79.482 0 0 1 6.541 12.355l9.672-1.726q-6.442-15.355-20.873-30.546-9.142-9.378-14.194-12.813Zm-165.791 79.433-58.24-14.963 144.091-151.187v126.242l-75.59 35.158zm13.164-34.962a19.746 19.746 0 0 0 16.688-4.676 36.474 36.474 0 0 0 7.718-9.755l-8.994-1.84a19.623 19.623 0 0 1-3.704 5.07q-3.565 3.352-7.743 2.65l-.335-.066a4.44 4.44 0 0 1-3.549-3.058c-.588-1.635-.163-3.819 1.235-6.443q2.805-5.225 7.432-6.206a16.353 16.353 0 0 1 5.888.14l1.283.236 3.982-7.44q-4.4-.982-5.659-2.257-2.207-2.159.295-6.827a11.717 11.717 0 0 1 4.187-4.604 7.154 7.154 0 0 1 5.077-1.054l.286.057q3.27.663 3.492 3.27c.18 1.767-.45 3.95-1.89 6.541l8.512 1.75a33.858 33.858 0 0 0 2.82-7.718 13.72 13.72 0 0 0-.44-6.451 8.045 8.045 0 0 0-2.723-3.72 13.458 13.458 0 0 0-5.519-2.224l-.818-.147a19.23 19.23 0 0 0-12.027 1.856 22.133 22.133 0 0 0-9.714 9.688q-2.493 4.669-1.79 8.381a5.772 5.772 0 0 0 1.733 3.401h-.049q-1.267-.213-4.84 1.717a22.076 22.076 0 0 0-8.88 9.346q-3.606 6.713-2.256 12.649 1.349 5.936 9.402 7.562zm-78.075 31.847 74.788 79.965a4.905 4.905 0 0 0 .981 0h.106q2.159-.238 1.954-2.551a13.31 13.31 0 0 0-2.265-5.569 27.072 27.072 0 0 0-6.688-7.154q-2.69-2.02-10.343-6.54-8.797-5.16-13.44-10.155a63.62 63.62 0 0 1-7.916-9.96l22.624-2.584 5.625 8.913-14.415 1.635a25.036 25.036 0 0 0 3.27 2.633q1.636 1.103 5.806 3.523l4.415 2.577a63.922 63.922 0 0 1 8.871 6.033 42.263 42.263 0 0 1 8.601 9.91q4.703 7.457 4.465 12.346c-.13 2.715-1.447 4.423-3.908 5.16l54.863 58.55-70.194-123.462-3.924-6.917zm252.483 49.483q-2.624 3.753-2.583 5.855c0 1.397.818 2.199 2.453 2.37h.392a8.176 8.176 0 0 0 4.75-1.545 20.522 20.522 0 0 0 5.388-5.535q2.535-3.63 2.551-5.773c0-1.439-.817-2.24-2.403-2.452h-.409a8.078 8.078 0 0 0-4.783 1.635 20.481 20.481 0 0 0-5.356 5.42zm-75.221 97.298 57.716-61.625h-.818c-.261 0-.67 0-1.006-.073q-5.38-.614-5.723-4.718-.343-4.105 3.459-9.452a36.973 36.973 0 0 1 4.383-5.07 26.058 26.058 0 0 1 6.974-4.741q-1.456-1.987-.483-5.487a25.633 25.633 0 0 1 3.86-7.628 37.897 37.897 0 0 1 10.465-10.18q5.568-3.622 11.046-3.393.557 0 1.112.09 6.034.68 6.345 5.413a11.079 11.079 0 0 1-.318 3.336L486 332.931l-62.958 15.773-4.194 7.358zm67.528-72.14 1.684-1.798c.31-.392.621-.818.932-1.227 1.243-1.782 1.872-3.27 1.872-4.489 0-1.217-.71-1.912-2.15-2.076h-.352a7.113 7.113 0 0 0-4.178 1.34 15.535 15.535 0 0 0-4.251 4.22c-1.358 1.946-2.02 3.508-1.98 4.685.042 1.177.77 1.856 2.192 2.019h.36a7.056 7.056 0 0 0 4.129-1.292 13.164 13.164 0 0 0 1.741-1.382zM328.679 486l-81.492-140.96 81.493-37.848 81.543 37.848zm-.818-143.323q-12.051 0-16.899 8.438-4.85 8.438-4.85 24.055 0 15.617 4.85 24.096 4.848 8.478 16.9 8.487 12.052 0 16.9-8.479 4.849-8.479 4.849-24.095 0-15.617-4.848-24.055-4.85-8.438-16.901-8.447zm7.245 49.37q1.717-5.479 1.717-16.877 0-10.874-1.717-16.638-1.717-5.764-7.244-5.724-5.528 0-7.31 5.724-1.783 5.723-1.783 16.638 0 11.398 1.783 16.876 1.783 5.478 7.31 5.478 5.51.008 7.228-5.47z" style="stroke-width:.68752"/></svg>
